X: 37115
T: Simon's Frolic
R: hornpipe
M: 4/4
K: Dmajor
|:FG|AD (3FED ADBD|GABG (3ABA FG|AD (3FED AAB=c|(3BAG GF G2FG|
AD (3DDD AAB=c|(3BAGAB A2de|(3fed ed A=cBA|(3BAG GF G2:|
|:FG|Addc de (3fed|eaa^g a=ged|eaa^g a=gef|dcAF G2FG|
A{BAG} AAB c{dcb}ccd|edef g2Bc|(3dcB AF GBAG|FDEF G2:|

